usr/share/icons/biglinux-icons-material/scalable/apps/imap.svg

<?xml version="1.0" encoding="UTF-8" standalone="no"?>
<svg
   width="24"
   height="24"
   viewBox="0 0 6.349875 6.349875"
   version="1.1"
   id="svg4"
   sodipodi:docname="imap.svg"
   inkscape:version="1.3 (0e150ed6c4, 2023-07-21)"
   xmlns:inkscape="http://www.inkscape.org/namespaces/inkscape"
   xmlns:sodipodi="http://sodipodi.sourceforge.net/DTD/sodipodi-0.dtd"
   xmlns="http://www.w3.org/2000/svg"
   xmlns:svg="http://www.w3.org/2000/svg">
  <defs
     id="defs4">
    <radialGradient
       id="paint0_radial_3_321"
       cx="0"
       cy="0"
       r="1"
       gradientUnits="userSpaceOnUse"
       gradientTransform="matrix(0,5.8207186,-5.8207186,0,3.1749374,0.26457812)">
      <stop
         stop-color="#555555"
         id="stop255"
         offset="0"
         style="stop-color:#818181;stop-opacity:1;" />
      <stop
         offset="1"
         stop-color="#222222"
         id="stop257"
         style="stop-color:#35393c;stop-opacity:1;" />
    </radialGradient>
  </defs>
  <sodipodi:namedview
     id="namedview4"
     pagecolor="#ffffff"
     bordercolor="#000000"
     borderopacity="0.25"
     inkscape:showpageshadow="2"
     inkscape:pageopacity="0.0"
     inkscape:pagecheckerboard="0"
     inkscape:deskcolor="#d1d1d1"
     inkscape:zoom="6.3359375"
     inkscape:cx="1.2626387"
     inkscape:cy="28.803946"
     inkscape:window-width="2560"
     inkscape:window-height="998"
     inkscape:window-x="0"
     inkscape:window-y="0"
     inkscape:window-maximized="1"
     inkscape:current-layer="svg4" />
  <path
     fill-rule="evenodd"
     clip-rule="evenodd"
     d="m 2.5389022,0.29463155 c 0.031707,3.3601e-4 0.062015,-0.003701 0.090922,-0.0121177 0.3798839,-0.0248846 0.7597123,-0.0238753 1.1395406,0.003029 0.3444016,0.0268339 0.6777965,0.10155611 1.0001585,0.2241669 C 5.3054528,0.73035203 5.6721845,1.1130537 5.8696656,1.6578095 5.982614,1.9857884 6.0492877,2.3230515 6.0697131,2.6695932 6.0979436,3.1047449 6.0878367,3.538944 6.0393925,3.9721907 6.0031453,4.2766936 5.9243274,4.5695287 5.8029919,4.8506694 5.5779418,5.3381546 5.2132473,5.6744069 4.7089085,5.8594264 4.3002146,5.9975097 3.8799588,6.0702158 3.4481143,6.0775182 2.9623754,6.1027854 2.4815126,6.0664323 2.0054942,5.9684855 1.1293226,5.7733062 0.58884242,5.239123 0.38405631,4.3659888 0.29715033,3.9729315 0.25775174,3.5750854 0.26585603,3.1724504 0.25615819,2.7443101 0.30161906,2.322226 0.40224076,1.9062086 0.61691945,1.0898184 1.1351724,0.58392656 1.9570023,0.38853826 2.1485013,0.34172116 2.3424688,0.31041893 2.5389022,0.29463155 Z"
     fill="url(#paint0_radial_3_321)"
     id="path249"
     style="fill:url(#paint0_radial_3_321);stroke-width:0.264578" />
  <g
     transform="matrix(0.25000109,0,0,0.25000109,2.0504329,-68.959004)"
     stroke-width="3.99995"
     paint-order="markers stroke fill"
     id="g3">
    <path
       d="m -1.587,284.565 h 12.17 c 0.44,0 0.794,0.354 0.794,0.793 v 8.467 c 0,0.44 -0.354,0.794 -0.794,0.794 h -12.17 a 0.792,0.792 0 0 1 -0.794,-0.794 v -8.467 c 0,-0.44 0.354,-0.793 0.794,-0.793 z"
       fill="#2f8dac"
       id="path1"
       style="stroke-width:3.99995" />
    <rect
       x="-1.058"
       y="282.45001"
       width="11.113"
       height="8.7309999"
       rx="0.77499998"
       ry="0.79400003"
       fill="#ffffff"
       id="rect1"
       style="stroke-width:3.99995" />
    <path
       d="m 11.212,284.878 a 0.788,0.788 0 0 1 0.165,0.48 v 8.467 c 0,0.44 -0.354,0.794 -0.794,0.794 h -12.17 a 0.788,0.788 0 0 1 -0.53,-0.206 z"
       fill="#26a4ca"
       id="path2"
       style="stroke-width:3.99995" />
    <path
       d="m -2.216,284.878 a 0.788,0.788 0 0 0 -0.165,0.48 v 8.467 c 0,0.44 0.354,0.794 0.794,0.794 h 12.17 a 0.79,0.79 0 0 0 0.53,-0.206 z"
       fill="#49bde3"
       id="path3"
       style="stroke-width:3.99995" />
  </g>
</svg>

<svg xmlns="http://www.w3.org/2000/svg" width="24" height="24" viewBox="0 0 6.35 6.35"><defs><radialGradient id="a" cx="0" cy="0" r="1" gradientTransform="rotate(90 1.455 1.72) scale(5.82072)" gradientUnits="userSpaceOnUse"><stop offset="0" stop-color="#555" style="stop-color:#818181;stop-opacity:1"/><stop offset="1" stop-color="#222" style="stop-color:#35393c;stop-opacity:1"/></radialGradient></defs><path fill="url(#a)" fill-rule="evenodd" d="M2.539.295a.312.312 0 0 0 .09-.012c.38-.025.76-.024 1.14.003.345.026.678.101 1 .224.536.22.903.603 1.1 1.148.114.328.18.665.2 1.012.029.435.019.869-.03 1.302a3.143 3.143 0 0 1-.236.879 1.87 1.87 0 0 1-1.094 1.008c-.409.139-.829.211-1.26.219a5.668 5.668 0 0 1-1.444-.11C1.13 5.773.59 5.24.385 4.366a5.04 5.04 0 0 1-.12-1.194c-.009-.428.037-.85.137-1.266C.617 1.09 1.135.584 1.957.39c.192-.047.385-.079.582-.094Z" clip-rule="evenodd" style="fill:url(#a);stroke-width:.264578"/><g stroke-width="4" paint-order="markers stroke fill" transform="matrix(.25 0 0 .25 2.05 -68.959)"><path fill="#2f8dac" d="M-1.587 284.565h12.17c.44 0 .794.354.794.793v8.467c0 .44-.354.794-.794.794h-12.17a.792.792 0 0 1-.794-.794v-8.467c0-.44.354-.793.794-.793z" style="stroke-width:3.99995"/><rect width="11.113" height="8.731" x="-1.058" y="282.45" fill="#fff" rx=".775" ry=".794" style="stroke-width:3.99995"/><path fill="#26a4ca" d="M11.212 284.878a.788.788 0 0 1 .165.48v8.467c0 .44-.354.794-.794.794h-12.17a.788.788 0 0 1-.53-.206z" style="stroke-width:3.99995"/><path fill="#49bde3" d="M-2.216 284.878a.788.788 0 0 0-.165.48v8.467c0 .44.354.794.794.794h12.17a.79.79 0 0 0 .53-.206z" style="stroke-width:3.99995"/></g></svg>
